X:110
T:The Lady of Kidwelly
M:3/4
L:1/8
Q:120
C:Trad.
S:Davidsons Musical Miracles 1859
R:Waltz
K:D
D>E F>G A2 | A2 d2 B2 | AB AG FE | F>G A4 | D>E F>G AB | AB dc B2 |
AB AG FE | E4 D2 :|| GB AF DF | GB AF D2 | Bc dc dB | AB AF DA | BA GA Bc|
| d6 | D>E F>G A2 | A2 d2 B2 | AB AG FE | F>G A4 | D>E F>G AB |
AB dc B2 | AB AG FE | E4 D2 ||
